!!!OTL: Der verkleidete Reiter Es war einmal ein Reiter,
!!!ARE: Europa, Mitteleuropa, Lothringen, Weiler
!!!SCT: D0036
!!!YEM: Copyright 1995, estate of Helmut Schaffrath.
**kern
*ICvox
*Ivox
*M6/8
*k[f#]
*G:
{8g
=1
4g
8g
8g
8a
8g
=2
4.fn
4g}
{8a
=3
8b-
8a
8g
8cc
8b-
8a
=4
[4.g
4g]}
{8g
=5
4b-
8fn
4b-
8cc
=6
4.dd
8dd
8cc}
{8cc
=7
8dd
8dd
8dd
8g
8a
8g
=8
4.fn
4g}
{8a
=9
8b-
8a
8g
8cc
8b-
8a
=10
[4.g
4g]}
==
!!!AGN: Ballade
!! Notenwert in Zeile 261 korrigiert
!!!ONB: ESAC (Essen Associative Code) Database: DVA
!!!AMT: compound duple
!!!AIN: vox
!!!EED: Helmut Schaffrath
!!!EEV: 1.0
*-
